Papirus-GTK/24x24/apps/nuvolaplayer.svg

<svg height="24" width="24" xmlns="http://www.w3.org/2000/svg"><path d="m1.0117 14.099613c-.00415.090322-.0117.179097-.0117.270452 0 3.109677 2.46245 5.629935 5.5 5.629935h11.6875c2.658 0 4.8125-2.205419 4.8125-4.926452 0-.08929-.007-.177032-.0115-.26529-.129 2.603355-2.226 4.675613-4.801 4.675613h-11.6875c-2.95645 0-5.3615-2.389677-5.4885-5.384258z" opacity=".3"/><path d="m12 4c-2.8475 0-5.2725 1.7847742-6.3165 4.3107097-2.65065.4036129-4.6835 2.7169033-4.6835 5.5427093 0 3.109678 2.46245 5.630452 5.5 5.630452h11.6875c2.658 0 4.8125-2.205936 4.8125-4.926452 0-2.529032-1.8575-4.60129-4.254-4.8830964-.625-3.227871-3.409-5.6743226-6.746-5.6743226z" fill="#fa9f5a"/><path d="m12 4c-2.8475 0-5.2725 1.7842581-6.3165 4.3107097-2.65065.4030968-4.6835 2.7174193-4.6835 5.5432253 0 .0831.00825.163613.0117.245678.12535-2.701419 2.1065-4.8825807 4.6718-5.2727743 1.044-2.5264516 3.469-4.3107096 6.3165-4.3107096 3.337 0 6.121 2.4459354 6.746 5.6743229 2.312.271483 4.117 2.211096 4.2425 4.617806.004-.083613.0115-.166193.0115-.250839 0-2.529032-1.8575-4.60129-4.254-4.8830964-.625-3.2283871-3.409-5.6743226-6.746-5.6743226z" fill="#fff" opacity=".2"/><path d="m16 13.5l-7 4v-8z" opacity=".2"/><path d="m16 13l-7 4v-8z" fill="#fff"/></svg>

<?xml version="1.0" encoding="UTF-8" standalone="no"?>
<!-- Created with Inkscape (http://www.inkscape.org/) -->

<svg
   xmlns:dc="http://purl.org/dc/elements/1.1/"
   xmlns:cc="http://creativecommons.org/ns#"
   xmlns:rdf="http://www.w3.org/1999/02/22-rdf-syntax-ns#"
   xmlns:svg="http://www.w3.org/2000/svg"
   xmlns="http://www.w3.org/2000/svg"
   xmlns:sodipodi="http://sodipodi.sourceforge.net/DTD/sodipodi-0.dtd"
   xmlns:inkscape="http://www.inkscape.org/namespaces/inkscape"
   id="svg2817"
   height="24"
   width="24"
   version="1.0"
   inkscape:version="0.91 r13725"
   sodipodi:docname="1nuvolaplayer.svg">
  <defs
     id="defs11" />
  <sodipodi:namedview
     pagecolor="#ffffff"
     bordercolor="#666666"
     borderopacity="1"
     objecttolerance="10"
     gridtolerance="10"
     guidetolerance="10"
     inkscape:pageopacity="0"
     inkscape:pageshadow="2"
     inkscape:window-width="1600"
     inkscape:window-height="843"
     id="namedview9"
     showgrid="false"
     inkscape:zoom="8.08"
     inkscape:cx="-13.014851"
     inkscape:cy="17.067591"
     inkscape:window-x="0"
     inkscape:window-y="0"
     inkscape:window-maximized="1"
     inkscape:current-layer="svg2817" />
  <metadata
     id="metadata57">
    <rdf:RDF>
      <cc:Work
         rdf:about="">
        <dc:format>image/svg+xml</dc:format>
        <dc:type
           rdf:resource="http://purl.org/dc/dcmitype/StillImage" />
        <dc:title />
      </cc:Work>
    </rdf:RDF>
  </metadata>
  <path
     inkscape:connector-curvature="0"
     id="path3237"
     style="opacity:0.3;enable-background:new"
     d="M 1.0117,14.099613 C 1.00755,14.189935 1,14.27871 1,14.370065 1,17.479742 3.46245,20 6.5,20 l 11.6875,0 C 20.8455,20 23,17.794581 23,15.073548 c 0,-0.08929 -0.007,-0.177032 -0.0115,-0.26529 -0.129,2.603355 -2.226,4.675613 -4.801,4.675613 l -11.6875,0 c -2.95645,0 -5.3615,-2.389677 -5.4885,-5.384258 z" />
  <path
     inkscape:connector-curvature="0"
     id="path5884"
     style="fill:#fa9f5a;fill-opacity:1;enable-background:new"
     d="M 12,4 C 9.1525,4 6.7275,5.7847742 5.6835,8.3107097 3.03285,8.7143226 1,11.027613 1,13.853419 c 0,3.109678 2.46245,5.630452 5.5,5.630452 l 11.6875,0 C 20.8455,19.483871 23,17.277935 23,14.557419 23,12.028387 21.1425,9.956129 18.746,9.6743226 18.121,6.4464516 15.337,4 12,4 Z" />
  <path
     inkscape:connector-curvature="0"
     id="path4189"
     style="opacity:0.2;fill:#ffffff;enable-background:new"
     d="M 12,4 C 9.1525,4 6.7275,5.7842581 5.6835,8.3107097 3.03285,8.7138065 1,11.028129 1,13.853935 c 0,0.0831 0.00825,0.163613 0.0117,0.245678 C 1.13705,11.398194 3.1182,9.2170323 5.6835,8.8268387 6.7275,6.3003871 9.1525,4.5161291 12,4.5161291 c 3.337,0 6.121,2.4459354 6.746,5.6743229 2.312,0.271483 4.117,2.211096 4.2425,4.617806 C 22.9925,14.724645 23,14.642065 23,14.557419 23,12.028387 21.1425,9.956129 18.746,9.6743226 18.121,6.4459355 15.337,4 12,4 Z" />
  <path
     sodipodi:nodetypes="cccc"
     inkscape:connector-curvature="0"
     id="path4149"
     d="m 16,13.5 -7,4 0,-8 z"
     inkscape:transform-center-y="-0.11931897"
     inkscape:transform-center-x="-2.1918163"
     style="opacity:0.2;fill:#000000;fill-opacity:1;stroke:none;stroke-width:8;stroke-linecap:round;stroke-linejoin:round;stroke-miterlimit:4;stroke-dasharray:none;stroke-opacity:1" />
  <path
     style="opacity:1;fill:#ffffff;fill-opacity:1;stroke:none;stroke-width:8;stroke-linecap:round;stroke-linejoin:round;stroke-miterlimit:4;stroke-dasharray:none;stroke-opacity:1"
     inkscape:transform-center-x="-2.1918163"
     inkscape:transform-center-y="-0.11931897"
     d="M 16,13 9,17 9,9 Z"
     id="path4139"
     inkscape:connector-curvature="0"
     sodipodi:nodetypes="cccc" />
</svg>
